www/assets/images/ico-yellowcursor.svg

<svg fill="none" height="59" viewBox="0 0 59 59" width="59" xmlns="http://www.w3.org/2000/svg"><path clip-rule="evenodd" d="m39.5229 18.7224c.5515.5652.9324 1.474.6586 2.4437l-.1667.5903c-2.5431 9.006-5.9114 17.6428-10.065 25.805-.5486 1.078-1.675 1.3319-2.5395 1.1067-.8458-.2203-1.6209-.9116-1.8424-1.9316l-2.0512-9.4427c-.2267-1.0437-1.0877-1.9067-2.0583-2.1259l-9.1862-2.0745c-1.0354-.2338-1.6942-1.0477-1.901-1.8748-.2077-.8308.0003-1.966 1.0624-2.5433 7.9216-4.3061 16.3086-7.8063 25.0586-10.4585l.5731-.1737c.9917-.3006 1.9076.1156 2.4576.6793zm-1.8479 1.8305-.4347.1318c-8.3916 2.5436-16.439 5.8808-24.0499 9.9724l8.836 1.9954c1.9809.4473 3.5779 2.1035 4.0103 4.0938l1.9508 8.9806c3.9217-7.8129 7.1161-16.068 9.5456-24.6713z" fill="#ffc830" fill-rule="evenodd"/></svg>

<svg width="59" height="59" viewBox="0 0 59 59" fill="none" xmlns="http://www.w3.org/2000/svg">
<path fill-rule="evenodd" clip-rule="evenodd" d="M39.5229 18.7224C40.0744 19.2876 40.4553 20.1964 40.1815 21.1661L40.0148 21.7564C37.4717 30.7624 34.1034 39.3992 29.9498 47.5614C29.4012 48.6394 28.2748 48.8933 27.4103 48.6681C26.5645 48.4478 25.7894 47.7565 25.5679 46.7365L23.5167 37.2938C23.29 36.2501 22.429 35.3871 21.4584 35.1679L12.2722 33.0934C11.2368 32.8596 10.578 32.0457 10.3712 31.2186C10.1635 30.3878 10.3715 29.2526 11.4336 28.6753C19.3552 24.3692 27.7422 20.869 36.4922 18.2168L37.0653 18.0431C38.057 17.7425 38.9729 18.1587 39.5229 18.7224ZM37.675 20.5529L37.2403 20.6847C28.8487 23.2283 20.8013 26.5655 13.1904 30.6571L22.0264 32.6525C24.0073 33.0998 25.6043 34.756 26.0367 36.7463L27.9875 45.7269C31.9092 37.914 35.1036 29.6589 37.5331 21.0556L37.675 20.5529Z" fill="#FFC830"/>
</svg>
